X: 8
T:Roddy Mc Corley
M:4/4
L:1/8
Q:100
C:Traditional
K:C
GA |B2 AB D2 D2 |B3 A G3 D |E2 G2 G2 A2 |
G6 Bc |d2 d2 d2 Bd |e2 e2 d2 BA |G2 E2 c2 B2 |
A6 Bc |d2 d2 d2 Bd |e2 e2 d2 BA |G2 E2 c2 B2 |
A6 GA |B2 AB D2 D2 |B3 A G3 D |E2 G2 G2 A2 |
G6

